images/logos/temporal-logo.svg

<?xml version="1.0" encoding="UTF-8"?>
<svg width="570px" height="138px" viewBox="0 0 570 138" version="1.1" xmlns="http://www.w3.org/2000/svg" xmlns:xlink="http://www.w3.org/1999/xlink">
    <!-- Generator: Sketch 57.1 (83088) - https://sketch.com -->
    <title>Group</title>
    <desc>Created with Sketch.</desc>
    <defs>
        <linearGradient x1="40.3750588%" y1="-2.31610036%" x2="80.4195005%" y2="67.5657477%" id="linearGradient-1">
            <stop stop-color="#D841F0" offset="0%"></stop>
            <stop stop-color="#DC7C1E" offset="100%"></stop>
        </linearGradient>
        <linearGradient x1="40.3750588%" y1="-2.7879529%" x2="80.4195005%" y2="67.7241778%" id="linearGradient-2">
            <stop stop-color="#D841F0" offset="0%"></stop>
            <stop stop-color="#DC7C1E" offset="100%"></stop>
        </linearGradient>
    </defs>
    <g id="Page-1" stroke="none" stroke-width="1" fill="none" fill-rule="evenodd">
        <g id="Artboard-Copy-26" transform="translate(-235.000000, -112.000000)">
            <g id="Group" transform="translate(233.000000, 112.000000)">
                <g id="Asset-2" transform="translate(2.000000, 0.000000)" fill-rule="nonzero">
                    <path d="M11.9734062,12.2513498 L0,12.2513498 L0,0.55862069 L11.9734062,0.55862069 L11.9734062,12.2513498 Z M23.458688,78.8165911 L23.458688,0.55862069 L58.1155257,0.55862069 L58.1155257,12.2513498 L34.7429773,12.2513498 L34.7429773,78.8165911 L23.458688,78.8165911 Z" id="Shape" fill="#000000"></path>
                    <path d="M83.5841379,12.2513498 L72.4434146,0.84591133 L119.590496,0.84591133 L119.590496,12.3375369 L83.5841379,12.2513498 Z M83.5841379,45.0312118 L72.4434146,34.0567094 L119.016232,34.0567094 L119.016232,45.0312118 L83.5841379,45.0312118 Z M72.4434146,78.5580296 L72.4434146,67.0664039 L119.590496,67.0664039 L119.590496,78.5580296 L72.4434146,78.5580296 Z" id="Shape" fill="#000000"></path>
                    <polygon id="Path" fill="#000000" points="134.349083 18.0258916 134.349083 0.84591133 168.804929 53.2189951 203.576619 0.55862069 203.576619 78.5580296 192.378469 78.5580296 192.378469 37.1594483 168.891068 71.6343251"></polygon>
                    <path d="M248.168225,41.526266 C250.30382,41.5718014 252.422658,41.1399479 254.370278,40.2621872 C256.070664,39.4633906 257.57889,38.3070986 258.792111,36.8721576 C259.917846,35.475645 260.765807,33.876306 261.29016,32.1605911 C261.850546,30.4549358 262.131733,28.6698712 262.122843,26.8744433 C262.13402,25.0130283 261.853038,23.1613988 261.29016,21.3871921 C260.750317,19.6544403 259.861027,18.0508798 258.677258,16.6756256 C257.44601,15.2840142 255.927537,14.1763871 254.226712,13.4292414 C252.251891,12.6152864 250.131443,12.2144276 247.995946,12.2513498 L231.141295,12.2513498 L219.885719,0.55862069 L248.168225,0.55862069 C252.00105,0.479717082 255.804361,1.24472241 259.308949,2.79948768 C262.353587,4.20376219 265.057413,6.25235503 267.233793,8.80386207 C269.350554,11.2770351 270.951605,14.1487973 271.942759,17.2502069 C272.971312,20.3545214 273.494818,23.603991 273.493275,26.8744433 C273.494337,30.0603756 272.970475,33.2246918 271.942759,36.2401182 C270.918088,39.2661464 269.319176,42.0657877 267.233793,44.4853596 C265.010071,46.988478 262.29221,49.003545 259.251522,50.4035468 C255.737552,51.9606481 251.924387,52.7256639 248.082086,52.6444138 L231.141295,52.6444138 L231.141295,78.5005714 L219.885719,78.5005714 L219.885719,41.526266 L248.168225,41.526266 Z" id="Path" fill="#000000"></path>
                    <path d="M381.885618,38.9981084 L399.343246,38.9981084 C401.445604,39.0489361 403.533451,38.6370204 405.459159,37.7914877 C407.100477,37.0487864 408.582552,35.9951516 409.823566,34.6887488 C410.975348,33.4536979 411.8643,31.9973577 412.436468,30.4081182 C413.045578,28.8775986 413.394942,27.256042 413.470143,25.6103645 C413.4216,23.9230028 413.101655,22.2544882 412.522607,20.6689655 C411.97729,19.0669918 411.085072,17.6053011 409.909706,16.388335 C408.661074,15.1489061 407.177123,14.1720829 405.545299,13.5154286 C403.60476,12.7271746 401.523171,12.3458281 399.429386,12.3949951 L383.809403,12.3949951 L372.324121,0.903369458 L399.343246,0.616078818 C403.206811,0.473370084 407.053145,1.19986481 410.598823,2.74202956 C413.573041,4.10745234 416.239668,6.06210409 418.437527,8.48784236 C420.510658,10.8405105 422.109651,13.5720077 423.146493,16.5319803 C424.203442,19.4621166 424.747394,22.5526942 424.754432,25.6678227 C424.751534,28.3702322 424.325232,31.0554817 423.491051,33.6257734 C422.682868,36.1786991 421.418116,38.5635865 419.758335,40.6643941 C418.0007,42.8174709 415.870815,44.637144 413.470143,46.0367291 C410.766818,47.618493 407.78331,48.6623222 404.683902,49.1107389 L429.0327,78.5580296 L414.676098,78.5580296 L381.885618,38.9981084 Z" id="Path" fill="#000000"></path>
                    <path d="M472.159933,0.84591133 L507.477174,78.5580296 L495.388915,78.5580296 L472.159933,24.3462857 L448.672532,78.5580296 L436.699125,78.5580296 L472.159933,0.84591133 Z M477.500589,55.6035074 L466.532145,55.6035074 L466.532145,66.2907192 L477.500589,66.2907192 L477.500589,55.6035074 Z" id="Shape" fill="#000000"></path>
                    <path d="M531.825971,42.2157635 L520.570395,42.2157635 L520.570395,0.84591133 L531.825971,0.84591133 L531.825971,42.2157635 Z M520.570395,78.5580296 L520.570395,67.0664039 L568.119462,67.0664039 L568.119462,78.5580296 L520.570395,78.5580296 Z" id="Shape" fill="#000000"></path>
                    <g id="Group-11" transform="translate(284.693900, 6.705191)">
                        <g id="Group-15" transform="translate(-4.626016, -4.628571)">
                            <path d="M11.7042694,33.2499581 C11.63776,33.9102759 11.63776,34.5756108 11.7042694,35.2359286 C11.6893893,54.6360777 27.372083,70.3874618 46.7614379,70.446648 C53.6142288,70.4120469 60.3145344,68.4194672 66.0737265,64.7034362 C56.3002443,60.9652442 46.8531771,56.4231204 37.8295043,51.1236922 C28.6176463,45.9381191 19.8760227,39.9574855 11.7042694,33.2499581 Z" id="Path" fill="url(#linearGradient-1)"></path>
                            <path d="M40.699525,46.0514163 C66.181017,60.838845 89.7849254,68.0044411 93.1109307,62.1538795 C94.7471107,59.0407366 91.099234,53.6464115 82.837866,46.2392784 C87.2635988,55.0687957 89.0070693,60.4899583 75.6762256,55.0687957 C79.6210318,49.2309925 81.7661312,42.3628828 81.845429,35.3164409 C81.9675638,19.0468618 70.8837266,4.83228125 55.0818383,0.993199964 C39.27995,-2.84588132 22.9152153,4.70004695 15.5667271,19.2139778 C5.29366245,10.169761 13.1258684,9.2841255 19.9656373,9.49882501 C9.58528216,6.09047031 2.20906079,5.5268841 0.438767658,8.61318954 C-3.07499598,14.5979383 14.8961615,31.2639877 40.699525,46.0514163 Z" id="Path" fill="url(#linearGradient-2)"></path>
                        </g>
                    </g>
                </g>
                <text id="Enterprise-IPFS-Plat" fill="#131313" font-family="Aldrich-Regular, Aldrich" font-size="30" font-weight="normal" letter-spacing="8.01">
                    <tspan x="0" y="131">Enterprise IPFS Platform</tspan>
                </text>
            </g>
        </g>
    </g>
</svg>

<svg width="570" height="138" xmlns="http://www.w3.org/2000/svg"><defs><linearGradient x1="40.375%" y1="-2.316%" x2="80.42%" y2="67.566%" id="a"><stop stop-color="#D841F0" offset="0%"/><stop stop-color="#DC7C1E" offset="100%"/></linearGradient><linearGradient x1="40.375%" y1="-2.788%" x2="80.42%" y2="67.724%" id="b"><stop stop-color="#D841F0" offset="0%"/><stop stop-color="#DC7C1E" offset="100%"/></linearGradient></defs><g fill="none" fill-rule="evenodd"><g fill-rule="nonzero"><path d="M11.973 12.251H0V.56h11.973V12.25zM23.46 78.817V.559h34.657V12.25H34.743v66.566H23.459zM83.584 12.251L72.444.846h47.146v11.492l-36.006-.087zm0 32.78l-11.14-10.974h46.572V45.03H83.584zm-11.14 33.527V67.066h47.146v11.492H72.443zM134.35 18.026V.846l34.455 52.373L203.577.559v77.999h-11.199V37.159l-23.487 34.475zM248.168 41.526a14.35 14.35 0 006.202-1.264 13.065 13.065 0 004.422-3.39 14.051 14.051 0 002.498-4.711c.56-1.706.842-3.491.833-5.287a17.792 17.792 0 00-.833-5.487 13.275 13.275 0 00-2.613-4.711 12.835 12.835 0 00-4.45-3.247 15.641 15.641 0 00-6.231-1.178H231.14L219.886.56h28.282a26.145 26.145 0 0111.14 2.24 23.173 23.173 0 017.926 6.005 24.423 24.423 0 014.709 8.446 30.555 30.555 0 011.55 9.624 29.002 29.002 0 01-1.55 9.366 24.825 24.825 0 01-4.71 8.245 24.235 24.235 0 01-7.981 5.919 26.203 26.203 0 01-11.17 2.24h-16.94v25.857h-11.256V41.526h28.282zM381.886 38.998h17.457a14.35 14.35 0 006.116-1.207 13.955 13.955 0 004.365-3.102 12.47 12.47 0 002.612-4.28c.61-1.531.959-3.153 1.034-4.799a15.722 15.722 0 00-.947-4.941 11.493 11.493 0 00-2.613-4.28 13.179 13.179 0 00-4.365-2.874 15.297 15.297 0 00-6.116-1.12h-15.62L372.324.903l27.02-.287a25.83 25.83 0 0111.255 2.126 24.206 24.206 0 017.839 5.746 24.337 24.337 0 014.708 8.044c1.057 2.93 1.601 6.02 1.608 9.136a25.87 25.87 0 01-1.263 7.958 22.125 22.125 0 01-3.733 7.038 23.204 23.204 0 01-6.288 5.373 24.283 24.283 0 01-8.786 3.074l24.349 29.447h-14.357l-32.79-39.56zM472.16.846l35.317 77.712H495.39l-23.23-54.212-23.486 54.212h-11.974L472.16.846zm5.34 54.758h-10.968V66.29h10.969V55.604zM531.826 42.216H520.57V.846h11.256v41.37zM520.57 78.558V67.066h47.55v11.492h-47.55z" fill="#000"/><path d="M11.704 33.25a9.908 9.908 0 000 1.986c-.015 19.4 15.668 35.151 35.057 35.21a35.955 35.955 0 0019.313-5.743 189.35 189.35 0 01-28.244-13.58A181.531 181.531 0 0111.704 33.25z" fill="url(#a)" transform="translate(280.068 2.077)"/><path d="M40.7 46.051C66.18 60.84 89.785 68.004 93.11 62.154c1.637-3.113-2.01-8.508-10.272-15.915 4.426 8.83 6.17 14.251-7.162 8.83a36.003 36.003 0 006.17-19.753C81.967 19.046 70.883 4.832 55.081.993 39.28-2.846 22.915 4.7 15.567 19.214c-10.273-9.044-2.441-9.93 4.399-9.715C9.586 6.09 2.209 5.527.439 8.613c-3.514 5.985 14.457 22.651 40.26 37.438z" fill="url(#b)" transform="translate(280.068 2.077)"/></g><text fill="#131313" font-family="Aldrich-Regular, Aldrich" font-size="30" letter-spacing="8.01" transform="translate(-2)"><tspan x="0" y="131">Enterprise IPFS Platform</tspan></text></g></svg>
